tipitek/img/icon-calendar.svg

<svg width="16" height="17" viewBox="0 0 16 17" fill="none" xmlns="http://www.w3.org/2000/svg">
<path d="M3.33333 15.1667C2.96667 15.1667 2.65267 15.0363 2.39133 14.7754C2.13044 14.514 2 14.2 2 13.8334V4.50004C2 4.13337 2.13044 3.8196 2.39133 3.55871C2.65267 3.29737 2.96667 3.16671 3.33333 3.16671H4V1.83337H5.33333V3.16671H10.6667V1.83337H12V3.16671H12.6667C13.0333 3.16671 13.3473 3.29737 13.6087 3.55871C13.8696 3.8196 14 4.13337 14 4.50004V13.8334C14 14.2 13.8696 14.514 13.6087 14.7754C13.3473 15.0363 13.0333 15.1667 12.6667 15.1667H3.33333ZM3.33333 13.8334H12.6667V7.16671H3.33333V13.8334ZM3.33333 5.83337H12.6667V4.50004H3.33333V5.83337ZM8 9.83337C7.81111 9.83337 7.65289 9.76937 7.52533 9.64137C7.39733 9.51382 7.33333 9.3556 7.33333 9.16671C7.33333 8.97782 7.39733 8.81937 7.52533 8.69137C7.65289 8.56382 7.81111 8.50004 8 8.50004C8.18889 8.50004 8.34733 8.56382 8.47533 8.69137C8.60289 8.81937 8.66667 8.97782 8.66667 9.16671C8.66667 9.3556 8.60289 9.51382 8.47533 9.64137C8.34733 9.76937 8.18889 9.83337 8 9.83337ZM5.33333 9.83337C5.14444 9.83337 4.986 9.76937 4.858 9.64137C4.73044 9.51382 4.66667 9.3556 4.66667 9.16671C4.66667 8.97782 4.73044 8.81937 4.858 8.69137C4.986 8.56382 5.14444 8.50004 5.33333 8.50004C5.52222 8.50004 5.68067 8.56382 5.80867 8.69137C5.93622 8.81937 6 8.97782 6 9.16671C6 9.3556 5.93622 9.51382 5.80867 9.64137C5.68067 9.76937 5.52222 9.83337 5.33333 9.83337ZM10.6667 9.83337C10.4778 9.83337 10.3196 9.76937 10.192 9.64137C10.064 9.51382 10 9.3556 10 9.16671C10 8.97782 10.064 8.81937 10.192 8.69137C10.3196 8.56382 10.4778 8.50004 10.6667 8.50004C10.8556 8.50004 11.0138 8.56382 11.1413 8.69137C11.2693 8.81937 11.3333 8.97782 11.3333 9.16671C11.3333 9.3556 11.2693 9.51382 11.1413 9.64137C11.0138 9.76937 10.8556 9.83337 10.6667 9.83337ZM8 12.5C7.81111 12.5 7.65289 12.436 7.52533 12.308C7.39733 12.1805 7.33333 12.0223 7.33333 11.8334C7.33333 11.6445 7.39733 11.4863 7.52533 11.3587C7.65289 11.2307 7.81111 11.1667 8 11.1667C8.18889 11.1667 8.34733 11.2307 8.47533 11.3587C8.60289 11.4863 8.66667 11.6445 8.66667 11.8334C8.66667 12.0223 8.60289 12.1805 8.47533 12.308C8.34733 12.436 8.18889 12.5 8 12.5ZM5.33333 12.5C5.14444 12.5 4.986 12.436 4.858 12.308C4.73044 12.1805 4.66667 12.0223 4.66667 11.8334C4.66667 11.6445 4.73044 11.4863 4.858 11.3587C4.986 11.2307 5.14444 11.1667 5.33333 11.1667C5.52222 11.1667 5.68067 11.2307 5.80867 11.3587C5.93622 11.4863 6 11.6445 6 11.8334C6 12.0223 5.93622 12.1805 5.80867 12.308C5.68067 12.436 5.52222 12.5 5.33333 12.5ZM10.6667 12.5C10.4778 12.5 10.3196 12.436 10.192 12.308C10.064 12.1805 10 12.0223 10 11.8334C10 11.6445 10.064 11.4863 10.192 11.3587C10.3196 11.2307 10.4778 11.1667 10.6667 11.1667C10.8556 11.1667 11.0138 11.2307 11.1413 11.3587C11.2693 11.4863 11.3333 11.6445 11.3333 11.8334C11.3333 12.0223 11.2693 12.1805 11.1413 12.308C11.0138 12.436 10.8556 12.5 10.6667 12.5Z" fill="black"/>
</svg>

<svg width="16" height="17" fill="none" xmlns="http://www.w3.org/2000/svg"><path d="M3.333 15.167c-.366 0-.68-.13-.942-.392A1.286 1.286 0 0 1 2 13.833V4.5c0-.367.13-.68.391-.941.262-.262.576-.392.942-.392H4V1.833h1.333v1.334h5.334V1.833H12v1.334h.667c.366 0 .68.13.942.392.26.26.391.574.391.941v9.333c0 .367-.13.681-.391.942-.262.261-.576.392-.942.392H3.333zm0-1.334h9.334V7.167H3.333v6.666zm0-8h9.334V4.5H3.333v1.333zm4.667 4a.643.643 0 0 1-.475-.192.643.643 0 0 1-.192-.474c0-.19.064-.348.192-.476A.645.645 0 0 1 8 8.5c.189 0 .347.064.475.191a.647.647 0 0 1 .192.476.644.644 0 0 1-.192.474.646.646 0 0 1-.475.192zm-2.667 0a.646.646 0 0 1-.475-.192.644.644 0 0 1-.191-.474c0-.19.063-.348.191-.476a.647.647 0 0 1 .475-.191c.19 0 .348.064.476.191A.647.647 0 0 1 6 9.167a.645.645 0 0 1-.191.474.646.646 0 0 1-.476.192zm5.334 0a.644.644 0 0 1-.475-.192.643.643 0 0 1-.192-.474c0-.19.064-.348.192-.476a.645.645 0 0 1 .475-.191c.189 0 .347.064.474.191a.646.646 0 0 1 .192.476.643.643 0 0 1-.192.474.643.643 0 0 1-.474.192zM8 12.5a.643.643 0 0 1-.475-.192.643.643 0 0 1-.192-.475c0-.188.064-.347.192-.474A.643.643 0 0 1 8 11.167c.189 0 .347.064.475.192a.645.645 0 0 1 .192.474.644.644 0 0 1-.192.475A.646.646 0 0 1 8 12.5zm-2.667 0a.646.646 0 0 1-.475-.192.644.644 0 0 1-.191-.475c0-.188.063-.347.191-.474a.646.646 0 0 1 .475-.192c.19 0 .348.064.476.192a.645.645 0 0 1 .191.474.644.644 0 0 1-.191.475.646.646 0 0 1-.476.192zm5.334 0a.644.644 0 0 1-.475-.192.643.643 0 0 1-.192-.475c0-.188.064-.347.192-.474a.644.644 0 0 1 .475-.192c.189 0 .347.064.474.192a.644.644 0 0 1 .192.474.643.643 0 0 1-.192.475.643.643 0 0 1-.474.192z" fill="#000"/></svg>
